X:1
T:Title
%%score { ( 1 3 ) | ( 2 4 ) }
L:1/8
M:6/8
K:Ab
V:1 treble nm="Grand Piano"
V:3 treble 
V:2 bass 
V:4 bass 
V:1
 z3 z2[Q:1/4=100] c | .E3 z3 | .B3 z3 | [Ec]3 [Ece]3 | [Gcf]3 z3 | d3 d3 | .[ce]3 d3 | [Ed]3 z3 | %8
 [Ece]6 | [E=Ac][Ac][Ac] [FAd]2 [Ac] | [CEF]2 [EFc] [DFB]2 [FB] | [DGB][GB][GB] [EGc]2 [GB] | %12
 [B,DE]2 [DEGB] [CFA]2 [B,=EG] | [A,F]FF [_CF]GA | [EAc]2 [EAe] [EAe]2 [CFA] | c3 B3 | A6 | %17
 [EAc]3 [FAd]2 [EAc] | [EGc]3 .[DGB]3 | z3 .[FB]3 | [C=EA]3 [B,EG]2 [B,EG] | %21
 [A,F][A,DF][A,DF] [_CF][FG][CFA] | [EAc]2 [EAe] [EAe]2 [CFA] | c3 B3 |[M:5/8] A-A- A3 |] %25
V:2
 z3 z2 E | A,,E,E, E,2 E, | A,,[E,A,][E,A,C] [E,A,CE]2 [E,A,C] | A,,E,E, [E,A,C]2 E, | %4
 E,,E,E, G,2 E | B,,E,[E,G,] [E,G,D]2 E, | G,,E,[E,G,D] [E,G,D]2 E, | E,,E,E, [E,G,B,]2 E, | %8
 A,,E,E, E,2 E | z EE z2 E | =A,,2 F,, B,,2 D | z DD z2 D | G,,2 E,, F,,2 [C,,C,] | %13
 z [A,D][B,D] z[K:treble] [_CF][CF] | [E,,E,]2 [C,,C,] [C,,C,]2 [F,,F,] | %15
 E,,[E,E][E,E] E,,[E,D][E,D] | z CE, .A,,3 | A,,A,A, A,2 A,, | E,,E,E, E,2 E,, | F,,F,F, F,2 F,, | %20
 C,,C,C, C,2 C,, | z3 .=D,3 | [E,,E,]2 [C,,C,] [C,,C,]2 [F,,F,] | E,,[E,E][E,E] E,,[E,D][E,D] | %24
[M:5/8] z CE, A,,2 |] %25
V:3
 x6 | c-[A,CFc-][A,CGc-] [A,CAc-]2 [A,CGc] | c-[Cc-][Ac] c2 A | z [A,C][A,C] z2 [A,C] | %4
 z [G,D][G,D] .[DGBd]3 | E[G,DG][DA] B2 =A | z [G,D][Bd] G2 [G,DF] | z [G,B,][G,B,] [Fdf]3 | %8
 z [A,C][A,C] [A,C]2 [Ac] | x6 | x6 | x6 | x6 | x6 | x6 | z AA z GG | z E[CE] .[CE]3 | x6 | x6 | %19
 [CFA]3 D2- [CDFA] | x6 | x6 | x6 | z AA z GG |[M:5/8] z E[CE] [CE]2 |] %25
V:4
 x6 | x6 | x6 | x6 | x6 | x6 | x6 | x6 | x6 | F,,3 F,3 | x6 | E,,3 E,3 | x6 | %13
 [D,,D,]3 [=D,,=D,]3[K:treble] | x6 | x6 | .A,,3 z3 | x6 | x6 | x6 | x6 | D,,D,D, z _C[=D,,=D,] | %22
 x6 | x6 |[M:5/8] A,,2 z z2 |] %25

